X:1
T:Mais languiray-ie
T:Jean de Castro
T:Source  : La fleur des chansons à 3---Louvain---P.Phalèse---1574. Editor : André Vierendeels (16/09/18) Notes :  Original clefs : G2, C2, C3 Original note values have been halved Editorial accidentals above the staff 
T:Mais languiray-ie
T:©
T:©
T:©
T:©
T:©
C:Jean de Castro
Z:©
%%score [ 1 2 3 ]
L:1/8
Q:1/4=96
M:2/2
K:C
V:1 treble nm="Soprano 1" snm="S 1"
V:2 treble nm="Soprano 2" snm="S 2"
V:3 treble-8 nm="Tenor" snm="T"
V:1
 z8 | G2 A>B c2 G2 | z cd>e f2 e2 | d2 cc e>f g2 | f2 d2 cede | cB A2 G2 z2 | z4 G2 AB | %7
w: |Mais lan- gui- ray- ie,|mais lan- gui- ray- ie|tou- iours, mais lan- gui- ray-|ie tou- iours vray Dieu que|c'est grand pai- ne,|vi- vray- ie|
 c2 G2 z cd>e | f2 e2 d2 cc | e>f g2 f2 d2 | cede cB A2 | B8 | z2 G2 c4 | z2 g2 gggg | %14
w: tou- iours vi- vray- ie|tou- iours en pleurs, vi-|vray- ie tou- iours en|pleurs pour u- ne que tant i'ay-|me,|ie voi,|ie voi que point ne|
 f2 ee d2 d2 | c3 B A2 A2 | G8 | z GA>B c2 G2 | z cd>e f2 ee | d2 cc e>f g2 | f>f d2 e2 z e | %21
w: m'ay- me, car ail- leurs|prend _ _ se-|cours,|n'est el- le pas bien,|n'est el- le pas bien vil-|lai- ne, n'est el- me pas|bien vi- lai- ne, quand|
 d2 A2 f2 f2 | e2 g2 g4 | z2 d2 e4 | z2 e2 dd ^c2 | d2 dd d2 e2 | f2 d2 c4 | z2 c3 ccc | %28
w: el- le fait telz|tours, cri- ons,|cri- ons|tous d'u- ne'al- lai,-|ne, fy fy fy de|tels a- mours,|fy fy- fy fy|
 c3 B A2 G2 | G2 ^F2 G4- | G4 z2 c2- | cccc c2 B2 | A2 A2 B4- | B8 |] %34
w: fy _ _ de|tels a- mours,|_ fy|_ fy fy fy fy de|tels a- mours.|_|
V:2
 z2 C2 E>F G2 | C2 F2 E4 | z2 G2 A>B c2 | B2 A2 G2 z G | A2 G2 EcBG | AG ^F2 G2 z C | %6
w: Mais lan- gui- ray-|ie tou- iours,|mais lan- gui- ray-|ie tou- iours, vray|Dieu que c'est, vray Dieu que|c'est grand pai- ne, vi-|
 E>F G2 C2 F2 | E4 z2 G2 | A>B c2 B2 A2 | G2 z G A2 G2 | EcBG AG ^F2 | G2 z D G2 z G | %12
w: vray- ie tou- iours en|pleurs, vi-|vray- ie tou- iours en|pleurs pour u- ne|que, pour u- ne que tant i'ay-|me, ie voi que|
 GG E2 C2 G2- | G2 c2 z cBG | A2 Ac A2 _B2 | A2 G3 ^F/E/ F2 | G2 z C E>F G2 | C2 F2 E2 E2 | %18
w: point ne m'ay- me, ie|_ voi que point ne|m'ay- me car ail- leurs|prend se- * * *|cours, n'est el- le pas|bien vi- lai- ne,|
 z2 G2 A>B c2 | BB A2 G2 z G | A2 B2 c2 z G | AB c4 B2 | c2 z G c4 | z2 B2 c4 | z2 G2 ^FG E2 | %25
w: n'est el- le pas|bien vi- lai- ne, quand|el- le fait, quand|el- le fait telz|tours, cri- ons,|cri- ons|tous d'u- ne'al- lai-|
 ^FA z B2 Bc>c | A2 G2 A4 | z2 A3 AAA | A3 B c2 B2 | A2 A2 G2 E2- | EEEE F2 A2- | AAAA A2 G2 | %32
w: ne fy fy fy fy de|tels a- mours,|fy fy fy fy|fy _ _ de|tels a- mours, fy|_ fy fy fy fy fy|_ fy fy fy fy de|
 G2 ^F2 G4- | G8 |] %34
w: tels a- mours|_|
V:3
 c2 e>f g2 c2 | e2 d2 z Ac>d | eA z2 z2 c2 | d>e f2 c2 e2 | d2 z G A2 Bc- | cG d2 ece>f | %6
w: Mais lan- gui- ray- ie|tou- iours, mais lan- gui-|ray- ie, mais|lan- gui- ray- ie tou-|iours, vray Dieu que c'est|_ grand pai- ne, vi- vray- ie|
 g2 c2 e2 d2 | z Ac>d eA z2 | z2 c2 d>e f2 | c2 e2 d2 z G | A2 B c2 G d2 | G4 z2 G2 | c4 z2 c2 | %13
w: tou- iours en pleurs,|vi- vray- ie tou- iours,|vi- vray- ie tou-|iours en pleurs pour|u- ne que tant i'ay-|me, ie|voi, ie|
 cccc e4 | d2 a2 ^f2 g2 | c4 d4 | ece>f g2 cc | e2 d2 z Gc>d | eA z2 z2 c2 | d>e f2 cc e2 | %20
w: voi que point ne m'ay-|me car ail- leurs|prend se-|cours, n'est el- le pas bien vil-|lai- ne, n'est el- le|pas bien, pas|bien vi- lai- ne, vi- lai-|
 d2 g2 c2 e2 | f4 d4 | c4 z2 c2 | g4 z2 c2 | g2 c2 dG A2 | d2 GG G2 c2 | d2 _B2 A2 f2- | %27
w: ne, quand el- le|fait telz|tours, cri-|ons, cri-|ons tous d'u- ne'al- lai-|ne, fy fy fy de|tels a- mours, fy|
 ffff f2 F2- | FFFF F2 G2 | d2 d2 e2 c2- | cc c2 z2 F2- | FFFF F2 G2 | d2 d2 G4- | G8 |] %34
w: _ fy fy fy fy fy|_ fy fy fy fy de|tels a- mours, fy|_ fy fy, fy|_ fy fy fy fy de|tels a- mours.|_|

